svg/format_pilcrow_arrow_right.svg

<svg xmlns="http://www.w3.org/2000/svg" viewBox="0 0 24 24"><path d="m21 18-4-4v3H5v2h12v3M9 10v5h2V4h2v11h2V4h2V2H9a4 4 0 0 0-4 4 4 4 0 0 0 4 4"/></svg>

<svg xmlns="http://www.w3.org/2000/svg" id="mdi-format-pilcrow-arrow-right" viewBox="0 0 24 24"><path d="M21,18L17,14V17H5V19H17V22M9,10V15H11V4H13V15H15V4H17V2H9A4,4 0 0,0 5,6A4,4 0 0,0 9,10Z" /></svg>
